build/svg/cmd/sc_drawchart.svg

<?xml version="1.0" encoding="UTF-8" standalone="no"?>
<svg
   xmlns:dc="http://purl.org/dc/elements/1.1/"
   xmlns:cc="http://creativecommons.org/ns#"
   xmlns:rdf="http://www.w3.org/1999/02/22-rdf-syntax-ns#"
   xmlns:svg="http://www.w3.org/2000/svg"
   xmlns="http://www.w3.org/2000/svg"
   xmlns:sodipodi="http://sodipodi.sourceforge.net/DTD/sodipodi-0.dtd"
   xmlns:inkscape="http://www.inkscape.org/namespaces/inkscape"
   viewBox="0 0 16 16"
   version="1.1"
   id="svg4"
   sodipodi:docname="sc_drawchart.svg"
   inkscape:version="0.92.4 (5da689c313, 2019-01-14)"
   inkscape:export-filename="/home/jupiter007/Libreoffice yaru theme fullcolor/build/cmd/sc_drawchart.png"
   inkscape:export-xdpi="95"
   inkscape:export-ydpi="95"><metadata
   id="metadata10">
  <rdf:RDF>
    <cc:Work
       rdf:about="">
      <dc:format>image/svg+xml</dc:format>
      <dc:type
         rdf:resource="http://purl.org/dc/dcmitype/StillImage" />
    </cc:Work>
  </rdf:RDF>
</metadata>
<defs
   id="defs8" />
<sodipodi:namedview
   pagecolor="#ffffff"
   bordercolor="#666666"
   borderopacity="1"
   objecttolerance="10"
   gridtolerance="10"
   guidetolerance="10"
   inkscape:pageopacity="0"
   inkscape:pageshadow="2"
   inkscape:window-width="1920"
   inkscape:window-height="1011"
   id="namedview6"
   showgrid="true"
   inkscape:zoom="29.5"
   inkscape:cx="1.3743599"
   inkscape:cy="4.2849769"
   inkscape:window-x="1920"
   inkscape:window-y="32"
   inkscape:window-maximized="1"
   inkscape:current-layer="svg4">
  <inkscape:grid
     type="xygrid"
     id="grid833" />
</sodipodi:namedview>
/&gt;<path
   sodipodi:nodetypes="cccscsccccccccscscccccc"
   inkscape:connector-curvature="0"
   id="path4237-1"
   d="m 5,2.0000002 c -1.2582,0.0145 -2.178891,-0.030604 -2.931641,0.3847656 -0.37637,0.20766 -0.673231,0.5593869 -0.837891,0.9980469 -0.16467,0.43867 -0.224609,0.9595875 -0.224609,1.6171877 v 1.488281 4.5123016 c 0,0.65761 0.0599,1.178577 0.224609,1.617188 0.16468,0.438611 0.461531,0.788524 0.837891,0.996093 C 2.821079,14.028994 3.7419,13.985513 5,14.000583 h 0.002 6.00586 0.0039 c 1.258191,-0.0145 2.178891,0.0306 2.931642,-0.384766 0.376369,-0.20766 0.67322,-0.559386 0.837891,-0.998046 C 14.94583,12.1791 15.00591,11.658193 15.00591,11.000583 V 6.4667974 5.0000004 c 0,-0.6576002 -0.0599,-1.1785777 -0.22461,-1.6171877 C 14.616621,2.9442127 14.319769,2.5942789 13.94341,2.386719 13.19064,1.971589 12.269809,2.0150802 11.011718,2.0000002 h -0.002 -6.00586 z"
   style="font-style:normal;font-variant:normal;font-weight:normal;font-stretch:normal;font-size:15px;line-height:125%;font-family:Ubuntu;-inkscape-font-specification:Ubuntu;text-align:center;letter-spacing:0px;word-spacing:0px;writing-mode:lr-tb;text-anchor:middle;display:inline;opacity:0.6;fill:#000000;fill-opacity:1;stroke:none;stroke-width:0.99980211" />
<path
   inkscape:connector-curvature="0"
   id="path1993"
   d="M 7.989228,3.027185 C 6.432647,3.037981 4.879238,3.015433 3.329287,3.06596 2.868058,3.108628 2.313099,3.2723794 2.173947,3.7759268 1.954953,4.4112732 2.065533,5.1097144 2.028151,5.7578514 c -0.0078,2.297084 -0.02297,3.596428 0.02152,5.8857796 0.0391,0.461929 0.202551,1.012666 0.698756,1.163666 0.632456,0.225082 1.284144,0.12274 1.935974,0.154298 1.424235,0.0068 2.850563,0.01102 4.27642,0.01131 1.704531,3.5e-4 1.408389,-0.005 3.10719,-0.01851 0.511912,-0.01201 1.1837,0.01993 1.584746,-0.405191 0.421096,-0.539783 0.287073,-1.268021 0.322744,-1.903787 0.01187,-2.4443226 0.02769,-3.9110946 -0.0219,-6.3567943 C 13.904325,3.8865824 13.783609,3.4256706 13.378462,3.2441475 12.710293,2.9500501 11.952258,3.0761286 11.252541,3.0385748 9.498134,3.0267722 9.743667,3.0260904 7.989228,3.027185 Z"
   style="opacity:1;vector-effect:none;fill:#80a3fa;fill-opacity:1;stroke:none;stroke-width:1;stroke-linecap:round;stroke-linejoin:bevel;stroke-miterlimit:4;stroke-dasharray:none;stroke-dashoffset:0;stroke-opacity:1"
   sodipodi:nodetypes="cccccccsccccccc" />
<path
   d="m 3,11 h 1 3 6 V 10 H 12 V 7 H 9 v 3 H 7 V 5 H 4 v 5 H 3 Z"
   id="path2"
   inkscape:connector-curvature="0"
   style="fill:#ffffff;fill-opacity:1"
   sodipodi:nodetypes="ccccccccccccccc" />
<circle
   style="opacity:1;vector-effect:none;fill:#46a926;fill-opacity:1;stroke:none;stroke-width:3.49999976;stroke-linecap:butt;stroke-linejoin:round;stroke-miterlimit:4;stroke-dasharray:none;stroke-dashoffset:0;stroke-opacity:1"
   id="path2644"
   cy="12.500002"
   cx="12.5"
   r="3.5" />
<path
   inkscape:connector-curvature="0"
   id="path1063"
   overflow="visible"
   font-weight="400"
   style="color:#000000;font-weight:400;line-height:normal;font-family:sans-serif;text-indent:0;text-align:start;text-decoration:none;text-decoration-line:none;text-decoration-style:solid;text-decoration-color:#000000;text-transform:none;white-space:normal;overflow:visible;isolation:auto;mix-blend-mode:normal;fill:#ffffff;fill-opacity:1;marker:none"
   d="m 12,10 v 2 H 9.999999 v 1 H 12 v 2 h 1 v -2 h 2 v -1 h -2 v -2 z"
   sodipodi:nodetypes="ccccccccccccc" />
</svg>

<svg xmlns="http://www.w3.org/2000/svg" viewBox="0 0 16 16">/&gt;<path d="M5 2c-1.258.015-2.179-.03-2.932.385a1.88 1.88 0 00-.838.998c-.164.438-.224.96-.224 1.617V11.001c0 .657.06 1.178.224 1.617.165.438.462.788.838.996.753.415 1.674.372 2.932.387h6.012c1.258-.015 2.179.03 2.931-.385a1.88 1.88 0 00.838-.998c.165-.439.225-.96.225-1.617V5c0-.658-.06-1.179-.225-1.617a1.875 1.875 0 00-.838-.996c-.752-.415-1.673-.372-2.931-.387H5.004z" style="line-height:125%;-inkscape-font-specification:Ubuntu;text-align:center" font-weight="400" font-size="15" font-family="Ubuntu" letter-spacing="0" word-spacing="0" text-anchor="middle" opacity=".6"/><path d="M7.99 3.027c-1.557.011-3.11-.012-4.66.039-.462.043-1.017.206-1.156.71-.219.635-.108 1.334-.146 1.982-.008 2.297-.023 3.596.022 5.886.039.462.202 1.012.698 1.163.633.225 1.285.123 1.936.155 1.425.006 2.851.01 4.277.01 1.704.001 1.408-.004 3.107-.018.512-.012 1.184.02 1.585-.405.42-.54.287-1.268.323-1.904.011-2.444.027-3.91-.022-6.356-.05-.402-.17-.863-.576-1.045-.668-.294-1.426-.168-2.125-.205-1.755-.012-1.51-.013-3.264-.012z" fill="#80a3fa"/><path d="M3 11h10v-1h-1V7H9v3H7V5H4v5H3z" fill="#fff"/><circle cy="12.5" cx="12.5" r="3.5" fill="#46a926"/><path overflow="visible" font-weight="400" style="line-height:normal;text-indent:0;text-align:start;text-decoration-line:none;text-decoration-style:solid;text-decoration-color:#000;text-transform:none;white-space:normal;isolation:auto;mix-blend-mode:normal;marker:none" d="M12 10v2h-2v1h2v2h1v-2h2v-1h-2v-2z" color="#000" font-family="sans-serif" fill="#fff"/></svg>
